X:1
T: In the Gloamin
C:
R:Strathspey
Q: 128
K:F
M:4/4
L:1/16
|:Ac3 c3f d3f c4|Ac3 c3d B3A GB3|Ac3 c3f d3f c4|B3G A3F EG3 GB3|
Ac3 c3f d3f c4|Ac3 c3d B3A GB3|Ac3 c3f d3f c4|B3G A3F EG3 GB3|
Ac3 f3a g3a f4|Ac3 f3c B3A GB3|Ac3 f3a g3a f3c|((3d2e2f2) ((3c2B2A2) AG3 Gc3|
Ac3 f3a g3a f4|Ac3 f3c B3A GB3|Ac3 f3a g3a f3c|((3d2e2f2) ((3c2B2A2) AG3 Gc3|
